X:133
T:The Corner House
M:C|
L:1/8
K:G
"Am"EAAG ABcd|e2 dB cBAG|"Em"EGGF G2 AB|cABG EGDG|
"Am"EAAG ABcd|eaag "C"efge|\
"G"d2 Bd "Em"ef ge|1 "G"dBGB "Am"ABAG:|2 "G"dBGB "Am"ABcd||
|:"Am"eaag a2 ga|"G"bgab gedB|d2 gd edBd|"Em"e2 ed edBd|
"Am"eaag a2 ga|"G"bgab gedB|\
d2 gd edBd|1 dBGB "Am"ABcd :|2 "G"dBGB "Am"A3 z|]
